;FLAVOR:Marlin
;TIME:5578
;Filament used: 5.10765m
;Layer height: 0.15
;MINX:119.253
;MINY:134.755
;MINZ:0.5
;MAXX:179.72
;MAXY:165.24
;MAXZ:47.99
;TARGET_MACHINE.NAME:Unknown
;Generated with Cura_SteamEngine 5.7.1
M140 S100
M105
M190 S100
M104 S240
M105
M109 S240
M82 ;absolute extrusion mode
G28; HOME GERAL
M400
G29 V4 T; AUTO NIVELAMENTO
M400
G1 X-8 Y100 Z0.8 F3000; VAI PARA PONTO DE PURGA
G92 E0; RESETA EXTRUSOR
G1 E30 F200; PURGA FILAMENTO
G92 E0;  RESETA EXTRUSOR
G1 E-3; RETIRA PRESSAO DO BICO
G1 Z1 F3000;
G1 X10 Y10 Z0.3 F3000; MOVIMENTO PRA SOLTAR PURGA
G1 X0 Y30 Z1 F10000; MOVIMENTO PRA SOLTAR PURGA
G1 X10 Y10 Z0.3 F10000; MOVIMENTO PARA SOLTAR PURGA
G1 Z5 F3000
G92 E0
G92 E0
G1 F3000 E-5
;LAYER_COUNT:265
;LAYER:0
M107 P1
M204 S1000
M205 X8 Y8
G0 F9000 X122.256 Y139.354 Z0.5
M204 S500
;TYPE:SKIRT
G1 F3000 E0
G1 F1200 X123.92 Y138.666 E0.18715
G1 X124.801 Y138.513 E0.28009
G1 X149.286 Y136.94 E2.83026
G1 X150.421 Y136.926 E2.94824
G1 X151.128 Y136.952 E3.02177
G1 X152.356 Y137.051 E3.14982
G1 X153.461 Y137.216 E3.26595
G1 X154.722 Y137.47 E3.39964
G1 X155.737 Y137.745 E3.50894
G1 X156.926 Y138.135 E3.63901
G1 X157.657 Y138.411 E3.72022
G1 X158.87 Y138.961 E3.85865
G1 X159.667 Y139.366 E3.95157
G1 X160.56 Y139.884 E4.05887
G1 X161.291 Y140.35 E4.14898
G1 X161.952 Y140.821 E4.23334
G1 X162.514 Y141.244 E4.30645
G1 X163.283 Y141.875 E4.40984
G1 X163.875 Y142.405 E4.49243
G1 X164.793 Y143.345 E4.62899
G1 X165.454 Y144.091 E4.73259
G1 X165.964 Y144.72 E4.81675
G1 X166.405 Y145.307 E4.89306
G1 X167.031 Y146.22 E5.00812
G1 X167.648 Y147.304 E5.13776
G1 X168.133 Y148.464 E5.26845
G1 X168.337 Y150.157 E5.44569
G1 X168.081 Y151.652 E5.60334
G1 X167.531 Y152.936 E5.74852
G1 X167.075 Y153.7 E5.841
G1 X166.67 Y154.314 E5.91745
G1 X166.266 Y154.885 E5.99015
G1 X165.842 Y155.442 E6.06291
G1 X165.191 Y156.218 E6.16819
G1 X164.719 Y156.735 E6.24095
G1 X164.049 Y157.416 E6.34024
G1 X163.525 Y157.905 E6.41474
G1 X162.766 Y158.553 E6.51847
G1 X162.232 Y158.973 E6.58908
G1 X161.682 Y159.376 E6.65995
G1 X161.004 Y159.84 E6.74534
G1 X159.529 Y160.711 E6.92339
G1 X158.607 Y161.167 E7.0303
G1 X157.596 Y161.605 E7.14482
G1 X156.558 Y161.998 E7.26018
G1 X155.578 Y162.301 E7.36679
G1 X154.89 Y162.486 E7.44084
G1 X153.961 Y162.697 E7.53986
G1 X152.603 Y162.91 E7.68273
G1 X151.809 Y162.995 E7.76573
G1 X150.642 Y163.066 E7.88725
G1 X149.795 Y163.075 E7.97529
G1 X148.902 Y163.043 E8.06817
G1 X124.508 Y161.489 E10.60877
G1 X122.959 Y160.99 E10.77792
G1 X121.455 Y160.046 E10.96248
G1 X120.223 Y158.615 E11.15874
G1 X119.434 Y156.845 E11.36016
G1 X119.253 Y155.186 E11.53362
G1 X119.257 Y144.317 E12.66332
G1 X119.604 Y142.669 E12.83837
G1 X120.337 Y141.283 E13.00133
G1 X120.956 Y140.493 E13.10565
G1 X122.256 Y139.354 E13.28529
M204 S1000
G0 F9000 X122.522 Y139.785
M204 S500
G1 F1200 X124.058 Y139.15 E13.45804
G1 X124.887 Y139.006 E13.5455
G1 X149.292 Y137.44 E16.08732
G1 X150.403 Y137.426 E16.2028
G1 X151.11 Y137.452 E16.27634
G1 X152.282 Y137.546 E16.39854
G1 X153.387 Y137.711 E16.51467
G1 X154.591 Y137.953 E16.64231
G1 X155.606 Y138.228 E16.75161
G1 X156.749 Y138.603 E16.87665
G1 X157.48 Y138.879 E16.95786
G1 X158.644 Y139.407 E17.09071
G1 X159.416 Y139.799 E17.1807
G1 X160.291 Y140.306 E17.28581
G1 X161.022 Y140.772 E17.37591
G1 X161.651 Y141.22 E17.45618
G1 X162.197 Y141.631 E17.52721
G1 X162.949 Y142.248 E17.62831
G1 X163.541 Y142.778 E17.7109
G1 X164.419 Y143.677 E17.84151
G1 X165.066 Y144.406 E17.94282
G1 X165.564 Y145.02 E18.02499
G1 X165.993 Y145.591 E18.09922
G1 X166.596 Y146.467 E18.20976
G1 X167.213 Y147.551 E18.3394
G1 X167.645 Y148.594 E18.45674
G1 X167.832 Y150.143 E18.61891
G1 X167.598 Y151.508 E18.76285
G1 X167.071 Y152.739 E18.90203
G1 X166.658 Y153.425 E18.98526
G1 X166.262 Y154.025 E19.05998
G1 X165.868 Y154.582 E19.13089
G1 X165.444 Y155.139 E19.20365
G1 X164.822 Y155.881 E19.30428
G1 X164.363 Y156.384 E19.37506
G1 X163.708 Y157.05 E19.47215
G1 X163.184 Y157.539 E19.54664
G1 X162.456 Y158.16 E19.6461
G1 X161.936 Y158.57 E19.71493
G1 X161.4 Y158.963 E19.78401
G1 X160.722 Y159.427 E19.8694
G1 X159.307 Y160.263 E20.04022
G1 X158.408 Y160.708 E20.14449
G1 X157.419 Y161.137 E20.25653
G1 X156.381 Y161.53 E20.3719
G1 X155.448 Y161.818 E20.47338
G1 X154.779 Y161.998 E20.54539
G1 X153.85 Y162.209 E20.64441
G1 X152.55 Y162.413 E20.78118
G1 X151.778 Y162.496 E20.86188
G1 X150.637 Y162.566 E20.9807
G1 X149.813 Y162.575 E21.06635
G1 X148.934 Y162.544 E21.15777
G1 X124.602 Y160.994 E23.69191
G1 X123.174 Y160.534 E23.84785
G1 X121.783 Y159.661 E24.01854
G1 X120.651 Y158.346 E24.19888
G1 X119.922 Y156.712 E24.38486
G1 X119.753 Y155.186 E24.54443
G1 X119.757 Y144.368 E25.66883
G1 X120.078 Y142.842 E25.83092
G1 X120.76 Y141.552 E25.98258
G1 X121.319 Y140.839 E26.07675
G1 X122.522 Y139.785 E26.24299
M204 S1000
G0 F9000 X122.788 Y140.216
M204 S500
G1 F1200 X124.196 Y139.634 E26.40134
G1 X124.973 Y139.499 E26.48331
G1 X149.298 Y137.94 E29.01679
G1 X150.385 Y137.926 E29.12978
G1 X151.092 Y137.952 E29.20331
G1 X152.208 Y138.041 E29.31968
G1 X153.313 Y138.206 E29.4358
G1 X154.46 Y138.436 E29.55739
G1 X155.475 Y138.711 E29.66669
G1 X156.572 Y139.071 E29.78669
G1 X157.303 Y139.347 E29.86791
G1 X158.418 Y139.853 E29.99517
G1 X159.19 Y140.245 E30.08517
G1 X160.022 Y140.728 E30.18516
G1 X160.732 Y141.18 E30.27264
G1 X161.35 Y141.619 E30.35143
G1 X161.88 Y142.018 E30.42038
G1 X162.615 Y142.621 E30.5192
G1 X163.207 Y143.151 E30.60178
G1 X164.045 Y144.009 E30.72644
G1 X164.678 Y144.721 E30.82546
G1 X165.164 Y145.32 E30.90563
G1 X165.581 Y145.875 E30.97779
G1 X166.184 Y146.751 E31.08832
G1 X166.751 Y147.742 E31.20699
G1 X167.157 Y148.723 E31.31734
G1 X167.327 Y150.129 E31.46455
G1 X167.115 Y151.367 E31.59509
G1 X166.643 Y152.481 E31.72084
G1 X166.24 Y153.15 E31.80202
G1 X165.854 Y153.736 E31.87495
G1 X165.47 Y154.279 E31.94408
G1 X165.046 Y154.836 E32.01684
G1 X164.452 Y155.544 E32.1129
G1 X164.006 Y156.034 E32.18176
G1 X163.367 Y156.685 E32.27658
G1 X162.86 Y157.159 E32.34872
G1 X162.146 Y157.768 E32.44625
G1 X161.641 Y158.167 E32.51315
G1 X161.118 Y158.55 E32.58053
G1 X160.44 Y159.014 E32.66592
G1 X159.085 Y159.815 E32.82952
G1 X158.209 Y160.249 E32.93113
G1 X157.242 Y160.669 E33.04071
G1 X156.204 Y161.062 E33.15607
G1 X155.318 Y161.335 E33.25244
G1 X154.668 Y161.51 E33.3224
G1 X153.739 Y161.721 E33.42142
G1 X152.496 Y161.916 E33.55219
G1 X151.747 Y161.997 E33.6305
G1 X150.631 Y162.066 E33.74671
G1 X149.83 Y162.075 E33.82997
G1 X148.966 Y162.045 E33.91983
G1 X124.696 Y160.499 E36.44752
G1 X123.386 Y160.077 E36.59056
G1 X122.113 Y159.278 E36.74678
G1 X121.079 Y158.077 E36.9115
G1 X120.41 Y156.578 E37.08212
G1 X120.253 Y155.186 E37.22771
G1 X120.257 Y144.419 E38.34681
G1 X120.552 Y143.015 E38.49593
G1 X121.181 Y141.825 E38.63583
G1 X121.685 Y141.182 E38.72075
G1 X122.788 Y140.216 E38.87314
M204 S1000
G0 F9000 X123.054 Y140.647
M204 S500
G1 F1200 X124.334 Y140.118 E39.0171
G1 X125.059 Y139.992 E39.09358
G1 X149.305 Y138.44 E41.61882
G1 X150.367 Y138.426 E41.72921
G1 X151.074 Y138.452 E41.80274
G1 X152.134 Y138.536 E41.91326
G1 X153.239 Y138.701 E42.02939
G1 X154.329 Y138.919 E42.14492
G1 X155.344 Y139.194 E42.25422
G1 X156.395 Y139.539 E42.3692
G1 X157.126 Y139.815 E42.45041
G1 X158.192 Y140.299 E42.57209
G1 X158.939 Y140.678 E42.65916
G1 X159.753 Y141.15 E42.75696
G1 X160.463 Y141.602 E42.84444
G1 X161.049 Y142.018 E42.91913
G1 X161.563 Y142.405 E42.98601
G1 X162.281 Y142.994 E43.08253
G1 X162.873 Y143.524 E43.16512
G1 X163.672 Y144.342 E43.28397
G1 X164.29 Y145.036 E43.38056
G1 X164.764 Y145.62 E43.45873
G1 X165.169 Y146.159 E43.52881
G1 X165.772 Y147.035 E43.63934
G1 X166.289 Y147.933 E43.74704
G1 X166.669 Y148.852 E43.85041
G1 X166.822 Y150.115 E43.98264
G1 X166.632 Y151.227 E44.09989
G1 X166.214 Y152.223 E44.21216
G1 X165.822 Y152.875 E44.29124
G1 X165.446 Y153.447 E44.36238
G1 X165.072 Y153.976 E44.42972
G1 X164.648 Y154.533 E44.50248
G1 X164.082 Y155.208 E44.59404
G1 X163.649 Y155.684 E44.66092
G1 X163.026 Y156.32 E44.75345
G1 X162.535 Y156.779 E44.82331
G1 X161.836 Y157.376 E44.91886
G1 X161.345 Y157.764 E44.9839
G1 X160.836 Y158.137 E45.04949
G1 X160.158 Y158.601 E45.13488
G1 X158.863 Y159.367 E45.29127
G1 X158.01 Y159.79 E45.39023
G1 X157.065 Y160.201 E45.49734
G1 X156.027 Y160.594 E45.6127
G1 X155.188 Y160.852 E45.70393
G1 X154.557 Y161.022 E45.77186
G1 X153.628 Y161.233 E45.87087
G1 X152.442 Y161.419 E45.99565
G1 X151.716 Y161.498 E46.07155
G1 X150.625 Y161.566 E46.18517
G1 X149.847 Y161.575 E46.26604
G1 X148.998 Y161.546 E46.35434
G1 X124.79 Y160.004 E48.87556
G1 X123.601 Y159.621 E49.0054
G1 X122.441 Y158.893 E49.14774
G1 X121.507 Y157.808 E49.29655
G1 X120.898 Y156.444 E49.45181
G1 X120.753 Y155.186 E49.58343
G1 X120.757 Y144.47 E50.69722
G1 X121.026 Y143.188 E50.83337
G1 X121.602 Y142.098 E50.96151
G1 X122.051 Y141.525 E51.03718
G1 X123.054 Y140.647 E51.17572
M204 S1000
G0 F9000 X123.32 Y141.078
M204 S500
G1 F1200 X124.472 Y140.602 E51.30528
G1 X125.145 Y140.485 E51.37628
G1 X149.312 Y138.94 E53.89327
G1 X150.349 Y138.926 E54.00107
G1 X151.056 Y138.952 E54.0746
G1 X152.06 Y139.031 E54.17928
G1 X153.165 Y139.196 E54.2954
G1 X154.198 Y139.402 E54.40489
G1 X155.213 Y139.677 E54.51419
G1 X156.218 Y140.007 E54.62413
G1 X156.949 Y140.283 E54.70534
G1 X157.966 Y140.745 E54.82144
G1 X158.688 Y141.111 E54.90558
G1 X159.484 Y141.572 E55.00119
G1 X160.194 Y142.024 E55.08867
G1 X160.748 Y142.417 E55.15927
G1 X161.246 Y142.792 E55.22406
G1 X161.947 Y143.367 E55.3183
G1 X162.539 Y143.897 E55.40089
G1 X163.299 Y144.675 E55.51393
G1 X163.902 Y145.351 E55.60808
G1 X164.365 Y145.921 E55.68441
G1 X164.758 Y146.443 E55.75232
G1 X165.34 Y147.286 E55.8588
G1 X165.827 Y148.124 E55.95954
G1 X166.181 Y148.981 E56.05591
G1 X166.317 Y150.101 E56.17318
G1 X166.149 Y151.087 E56.27714
G1 X165.785 Y151.965 E56.37592
G1 X165.393 Y152.617 E56.455
G1 X165.038 Y153.158 E56.52225
G1 X164.674 Y153.673 E56.5878
G1 X164.25 Y154.23 E56.66056
G1 X163.712 Y154.872 E56.74762
G1 X163.292 Y155.334 E56.81252
G1 X162.684 Y155.955 E56.90285
G1 X162.21 Y156.399 E56.97035
G1 X161.526 Y156.984 E57.0639
G1 X161.049 Y157.361 E57.12709
G1 X160.554 Y157.724 E57.1909
G1 X159.876 Y158.188 E57.27629
G1 X158.641 Y158.919 E57.42545
G1 X157.811 Y159.331 E57.52176
G1 X156.866 Y159.742 E57.62887
G1 X155.88 Y160.116 E57.73848
G1 X155.058 Y160.369 E57.82787
G1 X154.446 Y160.534 E57.89375
G1 X153.517 Y160.745 E57.99277
G1 X152.388 Y160.922 E58.11155
G1 X151.685 Y160.999 E58.18506
G1 X150.619 Y161.066 E58.29607
G1 X149.864 Y161.075 E58.37455
G1 X149.03 Y161.047 E58.46128
G1 X124.884 Y159.509 E60.97606
G1 X123.813 Y159.164 E61.09301
G1 X122.771 Y158.51 E61.22087
G1 X121.935 Y157.539 E61.35405
G1 X121.386 Y156.31 E61.49396
G1 X121.253 Y155.186 E61.6116
G1 X121.257 Y144.521 E62.72009
G1 X121.501 Y143.359 E62.8435
G1 X122.022 Y142.372 E62.95951
G1 X122.417 Y141.869 E63.02598
G1 X123.32 Y141.078 E63.15075
M204 S1000
G0 F9000 X123.588 Y141.508
M204 S500
G1 F1200 X124.61 Y141.086 E63.26568
G1 X125.231 Y140.978 E63.33119
G1 X149.319 Y139.44 E65.83995
G1 X150.331 Y139.426 E65.94514
G1 X151.017 Y139.451 E66.01649
G1 X151.986 Y139.526 E66.11751
G1 X153.091 Y139.691 E66.23363
G1 X154.067 Y139.885 E66.33706
G1 X155.082 Y140.16 E66.44636
G1 X156.041 Y140.475 E66.55128
G1 X156.772 Y140.751 E66.63249
G1 X157.74 Y141.191 E66.74301
G1 X158.462 Y141.557 E66.82714
G1 X159.215 Y141.994 E66.91763
G1 X159.925 Y142.446 E67.00511
G1 X160.447 Y142.816 E67.07162
G1 X160.929 Y143.179 E67.13433
G1 X161.613 Y143.74 E67.22628
G1 X162.205 Y144.27 E67.30887
G1 X162.926 Y145.008 E67.4161
G1 X163.514 Y145.666 E67.50782
G1 X163.966 Y146.222 E67.5823
G1 X164.347 Y146.727 E67.64805
G1 X164.909 Y147.54 E67.75078
G1 X165.365 Y148.315 E67.84424
G1 X165.693 Y149.11 E67.93363
G1 X165.812 Y150.087 E68.03592
G1 X165.665 Y150.948 E68.12671
G1 X165.356 Y151.707 E68.21188
G1 X164.964 Y152.359 E68.29096
G1 X164.63 Y152.869 E68.35432
G1 X164.276 Y153.37 E68.41808
G1 X163.852 Y153.927 E68.49084
G1 X163.342 Y154.536 E68.5734
G1 X162.935 Y154.984 E68.63631
G1 X162.342 Y155.59 E68.72444
G1 X161.885 Y156.019 E68.78959
G1 X161.216 Y156.592 E68.88114
G1 X160.753 Y156.958 E68.94249
G1 X160.272 Y157.311 E69.0045
G1 X159.594 Y157.775 E69.08989
G1 X158.418 Y158.471 E69.23192
G1 X157.612 Y158.872 E69.32549
G1 X156.667 Y159.283 E69.4326
G1 X155.733 Y159.638 E69.53646
G1 X154.928 Y159.886 E69.62401
G1 X154.335 Y160.046 E69.68785
G1 X153.406 Y160.257 E69.78686
G1 X152.333 Y160.425 E69.89975
G1 X151.653 Y160.5 E69.97085
G1 X150.613 Y160.566 E70.07917
G1 X149.88 Y160.575 E70.15536
G1 X149.062 Y160.548 E70.24043
G1 X124.978 Y159.014 E72.74874
G1 X124.025 Y158.707 E72.85281
G1 X123.101 Y158.127 E72.9662
G1 X122.363 Y157.27 E73.08375
G1 X121.873 Y156.173 E73.20863
G1 X121.753 Y155.186 E73.31197
G1 X121.757 Y144.572 E74.41516
G1 X121.975 Y143.532 E74.52561
G1 X122.444 Y142.644 E74.62999
G1 X122.78 Y142.216 E74.68654
G1 X123.588 Y141.508 E74.79821
M204 S1000
G0 F9000 X123.856 Y141.938
M204 S500
G1 F1200 X124.748 Y141.57 E74.8985
G1 X125.317 Y141.471 E74.95853
G1 X149.326 Y139.94 E77.45904
G1 X150.313 Y139.926 E77.56164
G1 X150.978 Y139.95 E77.6308
G1 X151.947 Y140.025 E77.73182
G1 X152.994 Y140.182 E77.84186
G1 X153.936 Y140.368 E77.94166
G1 X154.951 Y140.643 E78.05096
G1 X155.864 Y140.943 E78.15085
G1 X156.595 Y141.219 E78.23206
G1 X157.514 Y141.637 E78.337
G1 X158.211 Y141.99 E78.4182
G1 X158.946 Y142.416 E78.5065
G1 X159.656 Y142.868 E78.59398
G1 X160.146 Y143.215 E78.65639
G1 X160.612 Y143.566 E78.71702
G1 X161.279 Y144.113 E78.80668
G1 X161.871 Y144.643 E78.88927
G1 X162.553 Y145.341 E78.9907
G1 X163.126 Y145.982 E79.08006
G1 X163.567 Y146.523 E79.15261
G1 X163.936 Y147.012 E79.21628
G1 X164.478 Y147.794 E79.31518
G1 X164.934 Y148.569 E79.40864
G1 X165.205 Y149.24 E79.48385
G1 X165.307 Y150.074 E79.57118
G1 X165.181 Y150.813 E79.6491
G1 X164.927 Y151.45 E79.72038
G1 X164.546 Y152.085 E79.79735
G1 X164.221 Y152.581 E79.85898
G1 X163.878 Y153.067 E79.92081
G1 X163.454 Y153.624 E79.99357
G1 X162.971 Y154.2 E80.0717
G1 X162.578 Y154.634 E80.13255
G1 X162 Y155.225 E80.21848
G1 X161.559 Y155.639 E80.28134
G1 X160.905 Y156.2 E80.3709
G1 X160.457 Y156.555 E80.43031
G1 X159.99 Y156.898 E80.49054
G1 X159.312 Y157.362 E80.57593
G1 X158.195 Y158.023 E80.71083
G1 X157.389 Y158.424 E80.8044
G1 X156.489 Y158.816 E80.90644
G1 X155.585 Y159.16 E81.00697
G1 X154.798 Y159.403 E81.09258
G1 X154.224 Y159.558 E81.15438
G1 X153.295 Y159.769 E81.25339
G1 X152.278 Y159.928 E81.36038
G1 X151.621 Y160.001 E81.42909
G1 X150.607 Y160.066 E81.5347
G1 X149.896 Y160.075 E81.6086
G1 X149.094 Y160.049 E81.69201
G1 X125.072 Y158.519 E84.19386
G1 X124.237 Y158.25 E84.28504
G1 X123.431 Y157.744 E84.38396
G1 X122.791 Y157.001 E84.48588
G1 X122.36 Y156.036 E84.59573
G1 X122.253 Y155.186 E84.68478
G1 X122.257 Y144.622 E85.78278
G1 X122.449 Y143.705 E85.88016
G1 X122.886 Y142.878 E85.97737
G1 X123.11 Y142.592 E86.01513
G1 X123.856 Y141.938 E86.11825
M204 S1000
G0 F9000 X124.124 Y142.368
M204 S500
G1 F1200 X124.888 Y142.053 E86.20414
G1 X125.349 Y141.97 E86.25283
G1 X149.333 Y140.44 E88.75074
G1 X150.295 Y140.426 E88.85074
G1 X150.94 Y140.449 E88.91782
G1 X151.873 Y140.52 E89.01508
G1 X152.898 Y140.673 E89.12279
G1 X153.805 Y140.851 E89.21886
G1 X154.82 Y141.126 E89.32816
G1 X155.687 Y141.411 E89.42302
G1 X156.418 Y141.687 E89.50424
G1 X157.288 Y142.083 E89.60359
G1 X157.985 Y142.436 E89.6848
G1 X158.677 Y142.838 E89.76798
G1 X159.387 Y143.29 E89.85546
G1 X159.845 Y143.614 E89.91377
G1 X160.295 Y143.953 E89.97233
G1 X160.945 Y144.486 E90.0597
